storage/app/icons/phosphoricons/fill/percent-fill.svg

<svg xmlns="http://www.w3.org/2000/svg" fill="currentColor" viewBox="0 0 256 256"><path d="M176 172a12 12 0 1 1-12-12 12 12 0 0 1 12 12M92 96a12 12 0 1 0-12-12 12 12 0 0 0 12 12m132-48v160a16 16 0 0 1-16 16H48a16 16 0 0 1-16-16V48a16 16 0 0 1 16-16h160a16 16 0 0 1 16 16M64 84a28 28 0 1 0 28-28 28 28 0 0 0-28 28m128 88a28 28 0 1 0-28 28 28 28 0 0 0 28-28m-2.34-105.66a8 8 0 0 0-11.32 0l-112 112a8 8 0 0 0 11.32 11.32l112-112a8 8 0 0 0 0-11.32"/></svg>

<svg xmlns="http://www.w3.org/2000/svg" viewBox="0 0 256 256" fill="currentColor"><path d="M176,172a12,12,0,1,1-12-12A12,12,0,0,1,176,172ZM92,96A12,12,0,1,0,80,84,12,12,0,0,0,92,96ZM224,48V208a16,16,0,0,1-16,16H48a16,16,0,0,1-16-16V48A16,16,0,0,1,48,32H208A16,16,0,0,1,224,48ZM64,84A28,28,0,1,0,92,56,28,28,0,0,0,64,84Zm128,88a28,28,0,1,0-28,28A28,28,0,0,0,192,172ZM189.66,66.34a8,8,0,0,0-11.32,0l-112,112a8,8,0,0,0,11.32,11.32l112-112A8,8,0,0,0,189.66,66.34Z"/></svg>
